X:1
T:Title
%%score { ( 1 3 ) | ( 2 4 ) }
L:1/8
M:4/4
K:Bb
V:1 treble nm="Grand Piano"
V:3 treble 
V:2 bass 
V:4 bass 
V:1
 z4 z2 z[Q:1/4=94] [DF] | [DF][EG][DF][CE] [B,D] [DF]2 [DB] | B>c BG [DF]3 [DF] | %3
 [EG][GB][FA]G F2 [Fd]2 | [A,Fc]6 z [A,EF] | [DF][EG][DF][CE] [B,D] [DF]2 [DB] | %6
 [GB]>[Ac] [GB][EG] [DF]3 [DF] | BBBB c<c [Fd][Ge] |[M:7/8] [Fd]2 [Ec]2 [B,DB]3 |[M:1/8] F | %10
[M:4/4] [Fd]2 [Ec]>F [Ec]3 F | z4 F4[K:bass][K:treble] | GGG[FG] [EGe][Fd][Ec][GB] | %13
 [FA]2 [=EB]2 z4 | [DF][B,EG][B,DF][K:bass][F,CE] [F,B,D][K:treble] [F,DF]2 [DB] | %15
 [GB]>[Ac] [GB][EG] [DF]3 [DF] | [FB][DB][EB][FB] [Gc][Gc][Fd][Ee] |[M:7/8] [Fd]2 [Ec]2 [DB]3 |] %18
V:2
 z4 z2 z [B,,F,] | [B,,B,][B,,B,][B,,B,][B,,F,] [B,,F,] [B,,F,]2 [B,,^F,] | %2
 [E,G,E]>[E,^F,E] [E,G,E][E,A,E] [B,,B,]3 [B,,B,] | [E,B,][E,B,][E,B,][E,B,E] [D,B,]2 [B,,B,]2 | %4
 z2 F,2 F,2 z2 | [B,,B,][B,,B,][B,,B,][B,,F,] [B,,F,] [B,,F,]2 [B,,_A,] | %6
 [E,G,]>[E,^F,] [E,G,][E,A,] [B,,B,]3 [B,,B,] | %7
 [B,DF][A,DF][G,DG][K:bass][F,D] [E,CE]<[E,CE] [D,G,][C,G,] |[M:7/8] [F,B,]2 [F,A,]2 B,,3 | %9
[M:1/8] D |[M:4/4] z2 z C z2 F,2 | C,F, .B,>_D =D3 [D,B,] | %12
 [E,B,E][F,B,D][E,B,E][E,=B,] [C,C][D,B,][E,C][=E,_D] | [F,C]F,G,G, A,F,G,A, | %14
 B,B,,B,,B,, B,, B,,2 [B,,_A,] | [E,G,]>[E,^F,] [E,G,][E,A,] [B,,B,]3 [B,,B,] | %16
 [D,B,][B,,B,][C,B,][D,B,] [E,B,][E,B,][D,=B,][C,C] |[M:7/8] [F,B,]2 [F,A,]2 [B,,B,]3 |] %18
V:3
 x8 | x8 | x8 | x8 | F,2 z2 z4 | x8 | x8 | x8 |[M:7/8] x7 |[M:1/8] x |[M:4/4] x8 | %11
 [Ec]2 [DB]>G z/[K:bass] B,,/D,/F,/ B,[K:treble]F | x8 | z CCC [_EFc]3 [CEF] | %14
 x3[K:bass] x2[K:treble] x3 | x8 | x8 |[M:7/8] x7 |] %18
V:4
 x8 | x8 | x8 | x8 | F,,>=E, z G, z _E,D,C, | x8 | x8 | x3[K:bass] x5 |[M:7/8] x7 |[M:1/8] x | %10
[M:4/4] [F,,F,]F, .A,>E F,,/A,,/C,/E,/ z E | z2 z G, z4 | x8 | x8 | x8 | x8 | x8 |[M:7/8] x7 |] %18

